src/assets/icons/multicolor/arrowLeft.multicolor.svg

<svg width="40" height="40" fill="none">
  <path fill="#093971" d="M6.43694 20.427c-.10869-.1166-.163-.2654-.163-.4143 0-.147.05312-.2946.15994-.4112l7.44162-8.1527c.227-.2489.6127-.2666.8618-.0391.249.227.2654.6131.039.8614l-6.47411 7.0931H33.125v1.2336H8.25831l6.57289 7.09c.2295.2458.2149.632-.0329.8614-.2465.2288-.6329.2141-.8618-.0329L6.43694 20.427z"/>
  <path fill="#093971" d="M20 40C8.95432 40 0 31.0457 0 20 0 8.95431 8.95432 0 20 0c11.0458 0 20 8.95431 20 20 0 11.0457-8.9542 20-20 20zm0-1.25c10.3388 0 18.75-8.4112 18.75-18.75C38.75 9.66125 30.3388 1.25 20 1.25 9.66119 1.25 1.25 9.66125 1.25 20c0 10.3388 8.41119 18.75 18.75 18.75z"/>
</svg>

<svg width="40" height="40" viewBox="0 0 40 40" fill="none" xmlns="http://www.w3.org/2000/svg">
<path d="M6.43694 20.427C6.32825 20.3104 6.27394 20.1616 6.27394 20.0127C6.27394 19.8657 6.32706 19.7181 6.43388 19.6015L13.8755 11.4488C14.1025 11.1999 14.4882 11.1822 14.7373 11.4097C14.9863 11.6367 15.0027 12.0228 14.7763 12.2711L8.30219 19.3642L33.125 19.3642L33.125 20.5978L8.25831 20.5978L14.8312 27.6878C15.0607 27.9336 15.0461 28.3198 14.7983 28.5492C14.5518 28.778 14.1654 28.7633 13.9365 28.5163L6.43694 20.427Z" fill="#093971"/>
<path d="M20 40C8.95432 40 0 31.0457 0 20C0 8.95431 8.95432 0 20 0C31.0458 0 40 8.95431 40 20C40 31.0457 31.0458 40 20 40ZM20 38.75C30.3388 38.75 38.75 30.3388 38.75 20C38.75 9.66125 30.3388 1.25 20 1.25C9.66119 1.25 1.25 9.66125 1.25 20C1.25 30.3388 9.66119 38.75 20 38.75Z" fill="#093971"/>
</svg>
